src/icons/change to light mode.svg

<svg width="40" height="41" viewBox="0 0 40 41" fill="none" xmlns="http://www.w3.org/2000/svg">
<path opacity="0.2" d="M19.4063 13.6874C20.1525 12.0165 21.4839 10.6761 23.1498 9.9186C24.8156 9.16109 26.7009 9.03875 28.4506 9.57462C30.2004 10.1105 31.6938 11.2676 32.6497 12.828C33.6057 14.3885 33.9581 16.2446 33.6407 18.0468C33.4013 19.3791 32.8137 20.6244 31.9376 21.6562C30.8103 20.8995 29.4827 20.4968 28.1251 20.4999C27.3643 20.496 26.6085 20.6229 25.8907 20.8749C25.4529 19.2506 24.6372 17.7528 23.5103 16.5037C22.3834 15.2546 20.9772 14.2896 19.4063 13.6874Z" fill="#D2D2D2"/>
<path d="M15.6249 11.75C16.6908 11.7534 17.7517 11.8952 18.7811 12.1718C19.1929 11.5133 19.6864 10.9095 20.2499 10.375L18.7811 8.24995C18.6855 8.11704 18.6172 7.96641 18.5803 7.80686C18.5434 7.6473 18.5387 7.482 18.5663 7.32058C18.5939 7.15916 18.6534 7.00486 18.7412 6.86665C18.8291 6.72845 18.9436 6.6091 19.078 6.51558C19.2122 6.4195 19.364 6.35094 19.5248 6.31385C19.6856 6.27676 19.8522 6.27187 20.0148 6.29947C20.1775 6.32707 20.3332 6.38661 20.4727 6.47465C20.6123 6.5627 20.733 6.67751 20.828 6.81245L22.3124 8.93745C23.6111 8.27329 25.0576 7.95066 26.5155 7.99995L26.9686 5.45308C27.0266 5.1257 27.2123 4.83478 27.4849 4.64431C27.7574 4.45384 28.0944 4.37944 28.4218 4.43745C28.7491 4.49547 29.0401 4.68116 29.2305 4.95367C29.421 5.22618 29.4954 5.5632 29.4374 5.89058L28.9843 8.43745C30.3726 8.89062 31.6246 9.68587 32.6249 10.75L34.7499 9.26558C35.0216 9.07804 35.3566 9.00564 35.6815 9.06419C36.0065 9.12274 36.295 9.30748 36.4843 9.57808C36.5799 9.71099 36.6482 9.86161 36.6851 10.0212C36.722 10.1807 36.7267 10.346 36.6991 10.5074C36.6715 10.6689 36.612 10.8232 36.5241 10.9614C36.4363 11.0996 36.3218 11.2189 36.1874 11.3125L34.0624 12.7968C34.7285 14.1005 35.0512 15.5525 34.9999 17.0156L37.5468 17.4687C37.8594 17.5183 38.1416 17.6846 38.3363 17.934C38.5311 18.1835 38.624 18.4976 38.5963 18.8129C38.5685 19.1282 38.4221 19.4213 38.1868 19.6329C37.9514 19.8445 37.6445 19.9589 37.328 19.9531H37.1093L34.5624 19.4999C34.3416 20.1835 34.0316 20.8349 33.6405 21.4375C34.8382 22.5453 35.6739 23.9888 36.0384 25.5791C36.4029 27.1694 36.2791 28.8327 35.6834 30.3516C35.0876 31.8705 34.0476 33.1744 32.6991 34.0929C31.3506 35.0114 29.7564 35.5018 28.1249 35.4999H15.6249C12.4754 35.4999 9.45498 34.2488 7.22799 32.0218C5.001 29.7948 3.74988 26.7744 3.74988 23.625C3.74988 20.4755 5.001 17.4551 7.22799 15.2281C9.45498 13.0011 12.4754 11.75 15.6249 11.75ZM32.4061 17.8593V17.7968C32.6899 16.1865 32.3248 14.5294 31.3905 13.1875V13.1562H31.3749C30.4296 11.8101 28.9929 10.8897 27.3749 10.5937H27.2968C25.7129 10.3183 24.0839 10.6654 22.7499 11.5625L22.6718 11.625L22.6093 11.6718C22.0428 12.0666 21.5509 12.5585 21.1561 13.125C23.7018 14.4713 25.6767 16.6903 26.7186 19.375C27.183 19.2939 27.6535 19.2521 28.1249 19.25C29.3178 19.2515 30.4962 19.5128 31.578 20.0156C31.9856 19.3545 32.2665 18.6233 32.4061 17.8593ZM15.6249 32.9999H28.1249C29.6167 32.9999 31.0475 32.4073 32.1024 31.3524C33.1573 30.2975 33.7499 28.8668 33.7499 27.3749C33.7499 25.8831 33.1573 24.4524 32.1024 23.3975C31.0475 22.3426 29.6167 21.75 28.1249 21.75C27.869 21.75 27.6133 21.7657 27.3593 21.7968C27.4539 22.4016 27.5009 23.0128 27.4999 23.625C27.4999 23.9565 27.3682 24.2744 27.1338 24.5088C26.8993 24.7433 26.5814 24.8749 26.2499 24.8749C25.9184 24.8749 25.6004 24.7433 25.366 24.5088C25.1316 24.2744 24.9999 23.9565 24.9999 23.625C24.9999 21.7708 24.45 19.9582 23.4199 18.4165C22.3898 16.8748 20.9256 15.6732 19.2125 14.9636C17.4995 14.254 15.6145 14.0684 13.7959 14.4301C11.9773 14.7918 10.3069 15.6847 8.99576 16.9958C7.68464 18.3069 6.79176 19.9774 6.43002 21.796C6.06828 23.6146 6.25394 25.4995 6.96351 27.2126C7.67308 28.9257 8.8747 30.3898 10.4164 31.42C11.9581 32.4501 13.7707 32.9999 15.6249 32.9999Z" fill="#D2D2D2"/>
</svg>

<svg xmlns="http://www.w3.org/2000/svg" width="40" height="41" fill="none"><path fill="#D2D2D2" d="M19.406 13.687a7.5 7.5 0 0 1 14.235 4.36 7.673 7.673 0 0 1-1.703 3.61 6.813 6.813 0 0 0-3.813-1.157 6.643 6.643 0 0 0-2.234.375 10.672 10.672 0 0 0-6.485-7.188Z" opacity=".2"/><path fill="#D2D2D2" d="M15.625 11.75c1.066.003 2.127.145 3.156.422a9.2 9.2 0 0 1 1.469-1.797L18.78 8.25a1.236 1.236 0 0 1 .297-1.734 1.25 1.25 0 0 1 1.75.296l1.484 2.125A8.594 8.594 0 0 1 26.515 8l.454-2.547a1.253 1.253 0 1 1 2.468.438l-.453 2.546a8.703 8.703 0 0 1 3.64 2.313l2.126-1.484a1.25 1.25 0 0 1 1.734.312 1.236 1.236 0 0 1-.297 1.735l-2.125 1.484A8.61 8.61 0 0 1 35 17.016l2.547.453a1.25 1.25 0 0 1-.219 2.484h-.219l-2.547-.453a8.174 8.174 0 0 1-.921 1.938A8.11 8.11 0 0 1 28.125 35.5h-12.5a11.875 11.875 0 1 1 0-23.75Zm16.781 6.11v-.063a6.187 6.187 0 0 0-1.015-4.61v-.03h-.016a6.266 6.266 0 0 0-4-2.563h-.078a6.234 6.234 0 0 0-4.547.969l-.078.062-.063.047a5.843 5.843 0 0 0-1.453 1.453 11.969 11.969 0 0 1 5.563 6.25 8.393 8.393 0 0 1 1.406-.125 8.218 8.218 0 0 1 3.453.766 6.249 6.249 0 0 0 .828-2.157ZM15.625 33h12.5a5.625 5.625 0 1 0 0-11.25 6.3 6.3 0 0 0-.766.047c.095.605.142 1.216.14 1.828a1.25 1.25 0 0 1-2.5 0A9.375 9.375 0 1 0 15.626 33Z"/></svg>
